X: 12465
T: Farewell To Chernobyl
R: reel
M: 4/4
K: Dminor
|:D3 F ADFA|DFAD GFEC|A,3 C EA,CE|A,=B,/C/EG AGFE|
D3 F ADFA|DFAD E/F/GA=B|c2Gc EcGe|1 fedc dcAF:|2 fedc dcAc||
de/d/Af gdfd|d/d/dfd efeA|B2fB gBfB|dee/e/e edcA|
de/d/Af gdfd|d/d/dfd gdfd|a2 a/a/a agg/g/g|gff/f/f fee/e/e|
de/d/Af gdfd|d/d/dfd efeA|B2fB gBfB|dee/e/e edcA|
de/d/Af Adfd|Bdfd Bdfd|cd/e/gc agfe|fedc dcAF||

